packages/gestalt-icons-android/vr-theme/ic_vr_desktop_gestalt.svg

<svg width="24" height="24" viewBox="0 0 24 24" fill="none" xmlns="http://www.w3.org/2000/svg">
<path fill-rule="evenodd" clip-rule="evenodd" d="M5 2C2.79086 2 1 3.79086 1 6V14C1 16.2091 2.79086 18 5 18H11V20C11 20.5523 10.5523 21 10 21H8V23H16V21H14C13.4477 21 13 20.5523 13 20V18H19C21.2091 18 23 16.2091 23 14V6C23 3.79086 21.2091 2 19 2H5ZM3 6C3 4.89543 3.89543 4 5 4H19C20.1046 4 21 4.89543 21 6V14C21 15.1046 20.1046 16 19 16H5C3.89543 16 3 15.1046 3 14V6Z" fill="black"/>
</svg>

<svg xmlns="http://www.w3.org/2000/svg" width="24" height="24"><path d="M5 2a4 4 0 0 0-4 4v8a4 4 0 0 0 4 4h6v2a1 1 0 0 1-1 1H8v2h8v-2h-2a1 1 0 0 1-1-1v-2h6a4 4 0 0 0 4-4V6a4 4 0 0 0-4-4zM3 6c0-1.1.9-2 2-2h14a2 2 0 0 1 2 2v8a2 2 0 0 1-2 2H5a2 2 0 0 1-2-2z"/></svg>
